X: 1
T: Scottish Pipe Strathpeys and Reels
T: These are examples of lyrical pipe tunes.
T: Arranged by Terry Traub for English Scottish Session, Pinewoods, July 8-12 2013
P: Dalnahassaig
C: Pipe-Major George S. MacLennan
C: As played by Hamish Moore "Stepping on a Bridge" CD
K: D
M: 4/4
L: 1/8
|: "D"f2 e>d d<f A2|"D"f2 e>f d>fa>g|"D"f2 e>d d<fA>f|"Em"g2 e>g "A7"c>g (3efg :|
|: "D"a2 f>a d>fA>f|"D"a2 f>a d>a "A7"(3efg|"D"a2 f>a d>fA>f|"Em"g2 e>g "A7"c>g (3efg :|

